images/ic_guard.svg

<svg width="26" height="26" viewBox="0 0 26 26" fill="none" xmlns="http://www.w3.org/2000/svg">
<g clip-path="url(#clip0)">
<path d="M23.7677 4.656L13.3575 0.0856824C13.0961 -0.0290833 12.7986 -0.0285247 12.5376 0.0871551L2.22899 4.65747C1.86179 4.82028 1.625 5.18423 1.625 5.58596V13.6094C1.625 16.6417 2.82328 19.7413 4.91263 22.1136C5.96355 23.3069 7.17509 24.2511 8.51363 24.9201C9.94739 25.6367 11.4568 26 13 26C15.1608 26 17.264 25.3006 19.082 23.9775C19.5355 23.6474 19.6356 23.0122 19.3056 22.5586C18.9755 22.1051 18.3403 22.0051 17.8867 22.3351C16.4182 23.4038 14.7284 23.9688 13 23.9688C8.10982 23.9688 3.65625 19.0311 3.65625 13.6094V6.24662L12.9513 2.12572L22.3438 6.24926V13.6094C22.3438 15.4796 21.8065 17.3723 20.79 19.0827C20.5034 19.5649 20.662 20.1881 21.1442 20.4747C21.6265 20.7612 22.2497 20.6026 22.5362 20.1204C23.7392 18.0961 24.375 15.8447 24.375 13.6094V5.58596C24.375 5.18296 24.1367 4.81804 23.7677 4.656Z" fill="white"/>
<path d="M17.8438 7.99817L11.5466 15.8666L8.01658 12.4711C7.61231 12.0823 6.96937 12.0947 6.58054 12.499C6.19171 12.9033 6.20415 13.5462 6.60842 13.9351L10.1877 17.3779C10.1892 17.3793 10.1906 17.3807 10.1921 17.3821C10.5627 17.7345 11.0424 17.9258 11.5507 17.9258C11.5779 17.9258 11.6052 17.9252 11.6325 17.9241C12.1708 17.9025 12.6653 17.6695 13.0247 17.2681C13.0372 17.2541 13.0493 17.2398 13.061 17.2252L19.4297 9.26734C19.7802 8.82941 19.7093 8.19027 19.2714 7.83978C18.8334 7.48929 18.1943 7.56018 17.8438 7.99817Z" fill="white"/>
</g>
<defs>
<clipPath id="clip0">
<rect width="26" height="26" fill="white"/>
</clipPath>
</defs>
</svg>

<svg xmlns="http://www.w3.org/2000/svg" fill="none" viewBox="0 0 26 26"><g clip-path="url(#A)" fill="#fff"><path d="M23.768 4.656l-10.4-4.57a1.02 1.02 0 0 0-.82.001L2.23 4.657c-.367.163-.604.527-.604.928v8.023c0 3.032 1.198 6.132 3.288 8.504 1.05 1.193 2.262 2.137 3.6 2.807A9.94 9.94 0 0 0 13 26c2.16 0 4.264-.7 6.082-2.023a1.02 1.02 0 0 0 .224-1.42c-.33-.455-.965-.553-1.42-.223-1.47 1.07-3.158 1.634-4.887 1.634-4.9 0-9.344-4.938-9.344-10.36v-7.36l9.295-4.12 9.393 4.124v7.36c0 1.87-.537 3.763-1.554 5.473-.287.482-.128 1.105.354 1.392s1.105.128 1.392-.354c1.203-2.024 1.84-4.276 1.84-6.5V5.586c0-.403-.238-.768-.607-.93zm-5.924 3.342l-6.297 7.868-3.53-3.395c-.404-.4-1.047-.376-1.436.028s-.376 1.047.028 1.436l3.58 3.443a1.96 1.96 0 0 0 1.363.548l.082-.002a1.96 1.96 0 0 0 1.392-.656l.036-.043 6.37-7.958c.35-.438.28-1.077-.158-1.428s-1.077-.28-1.428.158z"/></g><defs><clipPath id="A"><path d="M0 0h26v26H0z" fill="#fff"/></clipPath></defs></svg>
